Origami/64x64/apps/security-high.svg

<svg width="64" height="64" version="1" xmlns="http://www.w3.org/2000/svg">
 <path d="m10.057688 15.172496c-0.01714 0.06295-0.058595 0.116059-0.058595 0.183602 0 7.708853 2.008814 16.620115 5.511838 24.44817 2.84142 6.350844 7.951856 14.821103 16.156113 19.113732 0.104 0.054 0.218001 0.082 0.332002 0.082 0.114141 0 0.227622-0.02748 0.332042-0.08204 8.204457-4.292029 13.314893-12.762488 16.156113-19.113732 3.502824-7.829255 5.511838-16.741117 5.511838-24.44817 0-0.06754-0.04144-0.120645-0.0586-0.183602-0.284001 7.272051-2.222015 15.408107-5.454037 22.634158-2.84162 6.350844-7.952056 14.821103-16.156113 19.113733-0.10442 0.05456-0.217901 0.08204-0.332042 0.08204s-0.227622-0.02748-0.332042-0.08204c-8.204058-4.29403-13.314294-12.764089-16.156314-19.114133-3.232222-7.224051-5.169236-15.362107-5.452838-22.632158z" style="opacity:.2"/>
 <path d="m53.51539 13.659478-21.274148-7.617453c-0.156261-0.056034-0.326763-0.056034-0.483004 0l-21.274148 7.617453c-0.290302 0.103959-0.4846029 0.382663-0.4846029 0.695265 0 7.708853 2.0090139 16.620115 5.5120379 24.44817 2.84142 6.350844 7.951056 14.822503 16.156113 19.113733 0.10442 0.05456 0.218421 0.08184 0.332562 0.08184s0.228142-0.02728 0.332562-0.08184c8.204457-4.29203 13.314093-12.763489 16.156113-19.113733 3.502824-7.829255 5.512038-16.741117 5.512038-24.44817 0-0.312622-0.194301-0.591304-0.484603-0.695265z" style="fill:#59c156"/>
 <path d="m43.735322 23.126152-11.603881-4.101629c-0.08524-0.03017-0.178221-0.03017-0.263462 0l-11.603881 4.101629c-0.158341 0.05598-0.264321 0.206041-0.264321 0.374382 0 4.150829 1.095827 8.949262 3.00662 13.164692 1.549871 3.419624 4.337031 7.981255 8.812462 10.291871 0.05696 0.02938 0.119141 0.04406 0.181401 0.04406s0.124441-0.0146 0.181401-0.04406c4.475231-2.311016 7.262251-6.872647 8.812462-10.291871 1.910693-4.21563 3.00642-9.014263 3.00642-13.164692 0-0.168321-0.10598-0.318402-0.264321-0.374382z" style="opacity:.2"/>
 <path d="m43.735322 22.124137-11.604081-4.101429c-0.08524-0.03017-0.178221-0.03017-0.263462 0l-11.603881 4.101629c-0.158341 0.05598-0.264321 0.206041-0.264321 0.374382 0 4.150829 1.095827 8.949263 3.00662 13.164692 1.549871 3.419624 4.337031 7.981255 8.812462 10.291871 0.05696 0.02938 0.119141 0.04406 0.181401 0.04406s0.124441-0.0146 0.181401-0.04406c4.475231-2.311016 7.262251-6.872647 8.812462-10.291871 1.910693-4.215629 3.00642-9.014263 3.00642-13.164692 0-0.168321-0.10598-0.318402-0.264321-0.374382z" style="fill:#ffffff"/>
 <path d="m32 6c-0.082001 0-0.164187 0.0149687-0.242188 0.0429688l-21.27539 7.6171872c-0.290002 0.103999-0.482422 0.382711-0.482422 0.695313 0 0.268811 0.017366 0.546326 0.027344 0.820312 0.058622-0.235317 0.222623-0.432263 0.455078-0.515625l21.27539-7.6171872c0.156001-0.0560001 0.328374-0.0560001 0.484376 0l21.273437 7.6171872c0.234969 0.084265 0.400233 0.284715 0.457031 0.523438 0.009965-0.276622 0.027344-0.556757 0.027344-0.828125 0-0.312602-0.194373-0.591312-0.484375-0.695313l-21.273437-7.6171872c-0.078001-0.0280001-0.160187-0.0429688-0.242188-0.0429688z" style="fill:#ffffff;opacity:.2"/>
</svg>

<svg xmlns="http://www.w3.org/2000/svg" width="64" height="64" version="1">
 <path style="opacity:0.2" d="m 10.057688,15.172496 c -0.01714,0.06295 -0.058595,0.116059 -0.058595,0.183602 0,7.708853 2.008814,16.620115 5.511838,24.44817 2.84142,6.350844 7.951856,14.821103 16.156113,19.113732 0.104,0.054 0.218001,0.082 0.332002,0.082 0.114141,0 0.227622,-0.02748 0.332042,-0.08204 8.204457,-4.292029 13.314893,-12.762488 16.156113,-19.113732 3.502824,-7.829255 5.511838,-16.741117 5.511838,-24.44817 0,-0.06754 -0.04144,-0.120645 -0.0586,-0.183602 -0.284001,7.272051 -2.222015,15.408107 -5.454037,22.634158 -2.84162,6.350844 -7.952056,14.821103 -16.156113,19.113733 -0.10442,0.05456 -0.217901,0.08204 -0.332042,0.08204 -0.114141,0 -0.227622,-0.02748 -0.332042,-0.08204 C 23.462147,52.626317 18.351911,44.156258 15.509891,37.806214 12.277669,30.582163 10.340655,22.444107 10.057053,15.174056 Z"/>
 <path style="fill:#59c156" d="M 53.51539,13.659478 32.241242,6.042025 c -0.156261,-0.056034 -0.326763,-0.056034 -0.483004,0 L 10.48409,13.659478 c -0.290302,0.103959 -0.4846029,0.382663 -0.4846029,0.695265 0,7.708853 2.0090139,16.620115 5.5120379,24.44817 2.84142,6.350844 7.951056,14.822503 16.156113,19.113733 0.10442,0.05456 0.218421,0.08184 0.332562,0.08184 0.114141,0 0.228142,-0.02728 0.332562,-0.08184 8.204457,-4.29203 13.314093,-12.763489 16.156113,-19.113733 3.502824,-7.829255 5.512038,-16.741117 5.512038,-24.44817 0,-0.312622 -0.194301,-0.591304 -0.484603,-0.695265 z"/>
 <path style="opacity:0.2" d="M 43.735322,23.126152 32.131441,19.024523 c -0.08524,-0.03017 -0.178221,-0.03017 -0.263462,0 l -11.603881,4.101629 c -0.158341,0.05598 -0.264321,0.206041 -0.264321,0.374382 0,4.150829 1.095827,8.949262 3.00662,13.164692 1.549871,3.419624 4.337031,7.981255 8.812462,10.291871 0.05696,0.02938 0.119141,0.04406 0.181401,0.04406 0.06226,0 0.124441,-0.0146 0.181401,-0.04406 4.475231,-2.311016 7.262251,-6.872647 8.812462,-10.291871 1.910693,-4.21563 3.00642,-9.014263 3.00642,-13.164692 0,-0.168321 -0.10598,-0.318402 -0.264321,-0.374382 z"/>
 <path style="fill:#ffffff" d="M 43.735322,22.124137 32.131241,18.022708 c -0.08524,-0.03017 -0.178221,-0.03017 -0.263462,0 l -11.603881,4.101629 c -0.158341,0.05598 -0.264321,0.206041 -0.264321,0.374382 0,4.150829 1.095827,8.949263 3.00662,13.164692 1.549871,3.419624 4.337031,7.981255 8.812462,10.291871 0.05696,0.02938 0.119141,0.04406 0.181401,0.04406 0.06226,0 0.124441,-0.0146 0.181401,-0.04406 4.475231,-2.311016 7.262251,-6.872647 8.812462,-10.291871 1.910693,-4.215629 3.00642,-9.014263 3.00642,-13.164692 0,-0.168321 -0.10598,-0.318402 -0.264321,-0.374382 z"/>
 <path style="opacity:0.2;fill:#ffffff" d="M 32 6 C 31.917999 6 31.835813 6.0149687 31.757812 6.0429688 L 10.482422 13.660156 C 10.19242 13.764155 10 14.042867 10 14.355469 C 10 14.62428 10.017366 14.901795 10.027344 15.175781 C 10.085966 14.940464 10.249967 14.743518 10.482422 14.660156 L 31.757812 7.0429688 C 31.913813 6.9869687 32.086186 6.9869687 32.242188 7.0429688 L 53.515625 14.660156 C 53.750594 14.744421 53.915858 14.944871 53.972656 15.183594 C 53.982621 14.906972 54 14.626837 54 14.355469 C 54 14.042867 53.805627 13.764157 53.515625 13.660156 L 32.242188 6.0429688 C 32.164187 6.0149687 32.082001 6 32 6 z"/>
</svg>
